svg/l/MN.svg

<svg width="32" height="24" viewBox="0 0 32 24" fill="none" xmlns="http://www.w3.org/2000/svg">
<mask id="mask0" mask-type="alpha" maskUnits="userSpaceOnUse" x="0" y="0" width="32" height="24">
<rect width="32" height="24" fill="white"/>
</mask>
<g mask="url(#mask0)">
<path fill-rule="evenodd" clip-rule="evenodd" d="M10 0H22V24H10V0Z" fill="#4C67E8"/>
<path fill-rule="evenodd" clip-rule="evenodd" d="M22 0H32V24H22V0Z" fill="#C51918"/>
<path fill-rule="evenodd" clip-rule="evenodd" d="M0 0H12V24H0V0Z" fill="#C51918"/>
<path fill-rule="evenodd" clip-rule="evenodd" d="M6.01387 6.88417C5.00053 6.88417 5.13354 5.89683 5.13354 5.89683L5.614 4.85923V5.27719V5.89683C5.614 6.03029 5.7961 5.76337 5.7961 5.44206C5.7961 5.12075 6.01387 4.63961 6.01387 4.63961C6.01387 4.63961 6.02261 4.47872 6.02864 4.31986C6.06349 4.4016 6.13337 4.47237 6.23944 4.5798C6.25794 4.59854 6.27753 4.61839 6.29824 4.63961C6.42343 4.7679 6.40654 5.10775 6.39193 5.4018C6.3787 5.6681 6.36733 5.89683 6.46506 5.89683C6.67069 5.89683 6.65541 4.97805 6.65541 4.97805L7.00054 5.89683C7.00054 5.89683 7.02722 6.88417 6.01387 6.88417ZM6.01387 4.06449C6.03966 3.91373 6.0364 4.11512 6.02864 4.31986C5.99953 4.25162 5.99484 4.17574 6.01387 4.06449ZM7.53846 8.68374C7.53846 9.48643 6.86689 10.1371 6.03846 10.1371C5.21003 10.1371 4.53846 9.48643 4.53846 8.68374C4.53846 7.88105 5.21003 7.23034 6.03846 7.23034C6.86689 7.23034 7.53846 7.88105 7.53846 8.68374ZM3.76923 11.4042H2V19.9756H3.76923V11.4042ZM10 11.4042H8.23077V19.9756H10V11.4042ZM4.23077 11.4787L5.95549 12.5466L7.89938 11.4787H4.23077ZM5.95549 19.9999L4.23077 18.9321H7.89938L5.95549 19.9999ZM4.23077 12.8949H7.84615V13.5657H4.23077V12.8949ZM7.84615 17.8886H4.23077V18.5594H7.84615V17.8886ZM6.07692 17.516C7.09653 17.516 7.92308 16.7151 7.92308 15.7272C7.92308 14.7392 7.09653 13.9384 6.07692 13.9384C5.05732 13.9384 4.23077 14.7392 4.23077 15.7272C4.23077 16.7151 5.05732 17.516 6.07692 17.516ZM4.0032 9.21615C4.0032 9.21615 4.06536 11.0835 5.90587 11.0835C7.74638 11.0835 8.04343 9.21615 8.04343 9.21615C8.04343 9.21615 7.33103 10.36 6.02332 10.36C4.7156 10.36 4.0032 9.21615 4.0032 9.21615Z" fill="#F8D000"/>
<path d="M6.35865 13.9724L6.44114 13.6049C6.85361 14.0561 7.04046 14.3094 6.95218 14.7228C6.85363 15.1844 6.33554 15.6984 5.73361 16.1219C5.36904 16.3785 5.1457 17.0708 5.32662 17.291L5.1541 17.6049C4.75089 17.1142 5.07316 16.1885 5.62957 15.7969C6.1405 15.4374 6.49731 15.0604 6.55955 14.7637C6.60007 14.5705 6.67562 14.3192 6.35865 13.9724Z" fill="#C51918"/>
<path fill-rule="evenodd" clip-rule="evenodd" d="M6.5 17C6.77614 17 7 16.7761 7 16.5C7 16.2239 6.77614 16 6.5 16C6.22386 16 6 16.2239 6 16.5C6 16.7761 6.22386 17 6.5 17Z" fill="#C51918"/>
<path fill-rule="evenodd" clip-rule="evenodd" d="M5.37598 15.6506C5.65212 15.6506 5.87598 15.4268 5.87598 15.1506C5.87598 14.8745 5.65212 14.6506 5.37598 14.6506C5.09983 14.6506 4.87598 14.8745 4.87598 15.1506C4.87598 15.4268 5.09983 15.6506 5.37598 15.6506Z" fill="#C51918"/>
</g>
</svg>

<svg width="32" height="24" fill="none" xmlns="http://www.w3.org/2000/svg">
  <mask id="a" maskUnits="userSpaceOnUse" x="0" y="0" width="32" height="24">
    <path fill="#fff" d="M0 0h32v24H0z"/>
  </mask>
  <g mask="url(#a)">
    <path fill-rule="evenodd" clip-rule="evenodd" d="M10 0h12v24H10V0z" fill="#4C67E8"/>
    <path fill-rule="evenodd" clip-rule="evenodd" d="M22 0h10v24H22V0zM0 0h12v24H0V0z" fill="#C51918"/>
    <path fill-rule="evenodd" clip-rule="evenodd" d="M6.014 6.884c-1.013 0-.88-.987-.88-.987l.48-1.038v1.038c0 .133.182-.134.182-.455s.218-.802.218-.802.009-.161.015-.32c.034.082.104.152.21.26l.06.06c.124.128.108.468.093.762-.013.266-.025.495.073.495.206 0 .19-.919.19-.919l.346.919s.026.987-.987.987zm0-2.82c.026-.15.022.051.015.256a.435.435 0 01-.015-.255zm1.524 4.62c0 .802-.671 1.453-1.5 1.453-.828 0-1.5-.65-1.5-1.453s.672-1.454 1.5-1.454c.829 0 1.5.651 1.5 1.454zm-3.769 2.72H2v8.572h1.77v-8.572zm6.231 0H8.23v8.572H10v-8.572zm-5.77.075l1.725 1.068L7.9 11.479H4.231zM5.956 20l-1.724-1.068H7.9L5.955 20zm-1.724-7.105h3.615v.67H4.231v-.67zm3.615 4.994H4.231v.67h3.615v-.67zm-1.77-.373c1.02 0 1.847-.8 1.847-1.789 0-.988-.826-1.789-1.846-1.789s-1.846.801-1.846 1.79c0 .987.826 1.788 1.846 1.788zm-2.073-8.3s.062 1.868 1.903 1.868c1.84 0 2.137-1.868 2.137-1.868s-.712 1.144-2.02 1.144c-1.307 0-2.02-1.144-2.02-1.144z" fill="#F8D000"/>
    <path d="M6.359 13.972l.082-.367c.412.451.6.704.511 1.118-.098.461-.617.975-1.219 1.399-.364.256-.587.949-.406 1.169l-.173.314c-.403-.49-.081-1.417.475-1.808.511-.36.868-.737.93-1.033.04-.194.117-.445-.2-.792z" fill="#C51918"/>
    <path fill-rule="evenodd" clip-rule="evenodd" d="M6.5 17a.5.5 0 100-1 .5.5 0 000 1zm-1.124-1.35a.5.5 0 100-1 .5.5 0 000 1z" fill="#C51918"/>
  </g>
</svg>
